!! 00000] TT[00
!! NN
!!!OTL: Dui hua
!!!ARE: Asia, China, Shanxi Shanbei
!! Ethnic Group: Han
!! I, 85, 2)
!!!SCT: C0034
!!!YEM: Copyright 1995, estate of Helmut Schaffrath.
**kern
*ICvox
*Ivox
*M2/4
*k[b-e-a-]
*E-:
{8cc
8ff
8cc
8b-
=1
4cc
4ff
=2
8.g
16b-
8g
8b-
=3
2cc}
=4
{8g
8cc
8g
8f
=5
8g
8cc
8g
8f
=6
8.e-
16f
8b-
8d
=7
2c}
=8
{8.cc
16cc
8cc
8b-
=9
4cc
4ff
=10
8.g
16b-
8g
8b-
=11
2cc}
=12
{8g
8cc
8g
8f
=13
8g
8cc
8g
8f
=14
8.e-
16f
8b-
8d
=15
2c}
=16
{8.g
16f
8e-
8f
=17
2cc}
=18
{8.e-
16f
8b-
8d
=19
2c}
=20
{8.g
16f
8e-
8f
=21
2cc}
=22
{8.e-
16f
8b-
8d
=23
2c}
=24
{4.cc
8b-
=25
4cc
4ff
=26
8.g
16b-
8g
8b-
=27
2cc}
=28
{8g
8cc
8g
8f
=29
8g
8cc
8g
8f
=30
8.e-
16f
8b-
8d
=31
2c}
==
!!!AGN: Xiaodiao, Dui hua. Chang siji huahui
!! typisch: Quartspruenge aufwaerts. Es gibt viele Lieder mit diesem
!!    Titel aber anderen Melodien.
!!    Diese Sammlung enthaelt mit Stand 1987 wenigstens 32 Aufnahmen
!!    mit dem Titel "Dui hua"
!!    C0046, C0495, C0136
!!    Als Verzierungen nur Glissandi angegeben.
!!    Doppelt in C0687.
!!!ONB: ESAC (Essen Associative Code) Database: CHINA
!!!AMT: simple duple
!!!AIN: vox
!!!EED: Helmut Schaffrath
!!!EEV: 1.0
*-
